;FLAVOR:Marlin
;TIME:519
;Filament used: 0.221741m
;Layer height: 0.12
;Generated with Cura_SteamEngine 3.6.0
M140 S65
M105
M190 S65
M104 S205
M105
M109 S205
M82 ;absolute extrusion mode
; Ender 3 Custom Start G-code
G28 ; Home all axes
G92 E0 ; Reset Extruder
G1 Z2.0 F3000 ; Move Z Axis up little to prevent scratching of Heat Bed
G1 X0.1 Y20 Z0.3 F5000.0 ; Move to start position
G1 X0.1 Y200.0 Z0.3 F1500.0 E15 ; Draw the first line
G1 X0.4 Y200.0 Z0.3 F5000.0 ; Move to side a little
G1 X0.4 Y20 Z0.3 F1500.0 E30 ; Draw the second line
G92 E0 ; Reset Extruder
G1 Z2.0 F3000 ; Move Z Axis up little to prevent scratching of Heat Bed
; End of custom start GCode
G92 E0
G1 F1500 E-6
;LAYER_COUNT:79
;LAYER:0
M107
M204 S5000
M205 X30 Y30
G0 F3600 X107.37 Y109.519 Z0.2
M204 S500
M205 X20 Y20
;TYPE:SKIRT
G1 F1500 E0
G1 F1200 X107.902 Y109.041 E0.02379
G1 X108.484 Y108.625 E0.04758
G1 X109.109 Y108.277 E0.07137
G1 X109.768 Y108 E0.09515
G1 X110.455 Y107.799 E0.11896
G1 X111.159 Y107.676 E0.14273
G1 X111.908 Y107.632 E0.16768
G1 X123.091 Y107.632 E0.53963
G1 X123.805 Y107.672 E0.56342
G1 X124.51 Y107.791 E0.5872
G1 X125.198 Y107.989 E0.61101
G1 X125.859 Y108.262 E0.63479
G1 X126.486 Y108.606 E0.65858
G1 X127.07 Y109.019 E0.68237
G1 X127.604 Y109.494 E0.70614
G1 X128.083 Y110.026 E0.72995
G1 X128.498 Y110.608 E0.75373
G1 X128.847 Y111.233 E0.77753
G1 X129.123 Y111.893 E0.80133
G1 X129.324 Y112.579 E0.8251
G1 X129.447 Y113.284 E0.84891
G1 X129.491 Y114.031 E0.87379
G1 X129.492 Y124.011 E1.20573
G1 X129.452 Y124.726 E1.22955
G1 X129.333 Y125.431 E1.25333
G1 X129.135 Y126.118 E1.27711
G1 X128.863 Y126.779 E1.30088
G1 X128.518 Y127.406 E1.32469
G1 X128.105 Y127.99 E1.34848
G1 X127.63 Y128.525 E1.37227
G1 X127.098 Y129.003 E1.39606
G1 X126.516 Y129.419 E1.41985
G1 X125.891 Y129.767 E1.44365
G1 X125.232 Y130.044 E1.46742
G1 X124.545 Y130.245 E1.49123
G1 X123.841 Y130.368 E1.515
G1 X123.093 Y130.412 E1.53992
G1 X111.91 Y130.413 E1.91187
G1 X111.195 Y130.373 E1.93569
G1 X110.49 Y130.254 E1.95947
G1 X109.803 Y130.056 E1.98325
G1 X109.141 Y129.784 E2.00705
G1 X108.515 Y129.439 E2.03082
G1 X107.931 Y129.026 E2.05461
G1 X107.396 Y128.551 E2.07841
G1 X106.918 Y128.019 E2.1022
G1 X106.502 Y127.437 E2.12599
G1 X106.154 Y126.812 E2.14978
G1 X105.877 Y126.153 E2.17356
G1 X105.676 Y125.466 E2.19737
G1 X105.553 Y124.762 E2.22114
G1 X105.509 Y124.014 E2.24606
G1 X105.508 Y114.033 E2.57803
G1 X105.548 Y113.318 E2.60185
G1 X105.667 Y112.613 E2.62563
G1 X105.865 Y111.926 E2.64941
G1 X106.137 Y111.265 E2.67318
G1 X106.482 Y110.638 E2.69698
G1 X106.895 Y110.054 E2.72077
G1 X107.37 Y109.519 E2.74457
M204 S5000
M205 X30 Y30
G0 F3600 X107.764 Y109.693
M204 S500
M205 X20 Y20
G1 F1200 X108.291 Y109.245 E2.76757
G1 X108.867 Y108.86 E2.79062
G1 X109.483 Y108.544 E2.81364
G1 X110.132 Y108.301 E2.83669
G1 X110.804 Y108.134 E2.85972
G1 X111.491 Y108.047 E2.88276
G1 X111.908 Y108.032 E2.89664
G1 X123.091 Y108.032 E3.26858
G1 X123.782 Y108.072 E3.2916
G1 X124.465 Y108.191 E3.31466
G1 X125.128 Y108.389 E3.33768
G1 X125.765 Y108.661 E3.36071
G1 X126.366 Y109.005 E3.38375
G1 X126.924 Y109.416 E3.4068
G1 X127.43 Y109.888 E3.42981
G1 X127.879 Y110.416 E3.45286
G1 X128.264 Y110.991 E3.47588
G1 X128.579 Y111.608 E3.49892
G1 X128.822 Y112.256 E3.52194
G1 X128.989 Y112.929 E3.545
G1 X129.077 Y113.615 E3.56801
G1 X129.091 Y114.031 E3.58185
G1 X129.092 Y124.011 E3.91379
G1 X129.052 Y124.703 E3.93684
G1 X128.933 Y125.385 E3.95987
G1 X128.736 Y126.049 E3.9829
G1 X128.463 Y126.686 E4.00595
G1 X128.12 Y127.287 E4.02897
G1 X127.709 Y127.844 E4.05199
G1 X127.236 Y128.351 E4.07505
G1 X126.709 Y128.799 E4.09806
G1 X126.133 Y129.184 E4.1211
G1 X125.517 Y129.5 E4.14413
G1 X124.868 Y129.743 E4.16718
G1 X124.196 Y129.91 E4.19021
G1 X123.509 Y129.997 E4.21324
G1 X123.093 Y130.012 E4.22709
G1 X111.91 Y130.013 E4.59904
G1 X111.218 Y129.973 E4.62209
G1 X110.536 Y129.854 E4.64512
G1 X109.872 Y129.657 E4.66815
G1 X109.235 Y129.384 E4.6912
G1 X108.634 Y129.041 E4.71422
G1 X108.077 Y128.63 E4.73724
G1 X107.57 Y128.157 E4.7603
G1 X107.122 Y127.63 E4.78331
G1 X106.737 Y127.054 E4.80635
G1 X106.421 Y126.438 E4.82938
G1 X106.178 Y125.789 E4.85243
G1 X106.011 Y125.117 E4.87546
G1 X105.924 Y124.43 E4.89849
G1 X105.909 Y124.014 E4.91234
G1 X105.908 Y114.033 E5.24431
G1 X105.948 Y113.341 E5.26736
G1 X106.067 Y112.659 E5.29039
G1 X106.264 Y111.995 E5.31342
G1 X106.537 Y111.358 E5.33647
G1 X106.88 Y110.757 E5.35949
G1 X107.291 Y110.2 E5.38251
G1 X107.764 Y109.693 E5.40557
M204 S5000
M205 X30 Y30
G0 F3600 X108.156 Y109.874
M204 S500
M205 X20 Y20
G1 F1200 X108.679 Y109.457 E5.42782
G1 X109.248 Y109.104 E5.45009
G1 X109.854 Y108.822 E5.47232
G1 X110.49 Y108.614 E5.49458
G1 X111.146 Y108.484 E5.51682
G1 X111.908 Y108.432 E5.54223
G1 X123.091 Y108.432 E5.91417
G1 X123.759 Y108.472 E5.93643
G1 X124.417 Y108.591 E5.95867
G1 X125.057 Y108.788 E5.98094
G1 X125.668 Y109.06 E6.00319
G1 X126.242 Y109.403 E6.02543
G1 X126.772 Y109.812 E6.0477
G1 X127.249 Y110.281 E6.06994
G1 X127.667 Y110.803 E6.09219
G1 X128.019 Y111.372 E6.11444
G1 X128.301 Y111.979 E6.1367
G1 X128.509 Y112.615 E6.15896
G1 X128.639 Y113.271 E6.1812
G1 X128.691 Y114.031 E6.20654
G1 X128.692 Y124.011 E6.53847
G1 X128.652 Y124.679 E6.56073
G1 X128.533 Y125.338 E6.583
G1 X128.336 Y125.977 E6.60524
G1 X128.064 Y126.588 E6.62749
G1 X127.721 Y127.163 E6.64976
G1 X127.313 Y127.693 E6.672
G1 X126.844 Y128.17 E6.69425
G1 X126.321 Y128.587 E6.7165
G1 X125.752 Y128.94 E6.73877
G1 X125.146 Y129.222 E6.761
G1 X124.51 Y129.43 E6.78326
G1 X123.854 Y129.56 E6.8055
G1 X123.093 Y129.612 E6.83087
G1 X111.91 Y129.613 E7.20282
G1 X111.242 Y129.573 E7.22508
G1 X110.583 Y129.454 E7.24735
G1 X109.944 Y129.257 E7.26959
G1 X109.333 Y128.985 E7.29184
G1 X108.758 Y128.642 E7.3141
G1 X108.228 Y128.234 E7.33635
G1 X107.751 Y127.765 E7.3586
G1 X107.334 Y127.242 E7.38085
G1 X106.981 Y126.673 E7.40312
G1 X106.699 Y126.067 E7.42535
G1 X106.491 Y125.431 E7.44761
G1 X106.361 Y124.774 E7.46988
G1 X106.309 Y124.014 E7.49522
G1 X106.308 Y114.033 E7.82719
G1 X106.348 Y113.365 E7.84944
G1 X106.467 Y112.706 E7.87172
G1 X106.664 Y112.067 E7.89396
G1 X106.936 Y111.456 E7.9162
G1 X107.279 Y110.881 E7.93847
G1 X107.687 Y110.351 E7.96072
G1 X108.156 Y109.874 E7.98297
M204 S5000
M205 X30 Y30
G0 F3600 X108.083 Y110.51
M204 S500
M205 X20 Y20
G1 F1200 X108.548 Y110.063 E8.00442
G1 X109.065 Y109.678 E8.02586
G1 X109.626 Y109.36 E8.04731
G1 X110.221 Y109.113 E8.06873
G1 X110.843 Y108.942 E8.09019
G1 X111.481 Y108.85 E8.11163
G1 X111.908 Y108.832 E8.12584
G1 X123.091 Y108.832 E8.49779
G1 X123.734 Y108.872 E8.51922
G1 X124.368 Y108.991 E8.54068
G1 X124.982 Y109.188 E8.56212
G1 X125.567 Y109.459 E8.58357
G1 X126.114 Y109.801 E8.60502
G1 X126.614 Y110.207 E8.62644
G1 X127.06 Y110.672 E8.64787
G1 X127.445 Y111.189 E8.66931
G1 X127.764 Y111.75 E8.69078
G1 X128.01 Y112.346 E8.71222
G1 X128.181 Y112.967 E8.73365
G1 X128.273 Y113.605 E8.75509
G1 X128.291 Y114.031 E8.76927
G1 X128.292 Y124.011 E9.1012
G1 X128.252 Y124.655 E9.12266
G1 X128.133 Y125.288 E9.14409
G1 X127.936 Y125.902 E9.16553
G1 X127.665 Y126.487 E9.18698
G1 X127.324 Y127.034 E9.20842
G1 X126.917 Y127.534 E9.22986
G1 X126.452 Y127.981 E9.25131
G1 X125.935 Y128.366 E9.27275
G1 X125.374 Y128.684 E9.2942
G1 X124.779 Y128.931 E9.31563
G1 X124.157 Y129.102 E9.33708
G1 X123.519 Y129.194 E9.35852
G1 X123.092 Y129.212 E9.37274
G1 X111.909 Y129.213 E9.74469
G1 X111.266 Y129.173 E9.76611
G1 X110.632 Y129.054 E9.78757
G1 X110.019 Y128.857 E9.80898
G1 X109.434 Y128.586 E9.83043
G1 X108.887 Y128.245 E9.85187
G1 X108.386 Y127.838 E9.87334
G1 X107.94 Y127.373 E9.89477
G1 X107.555 Y126.856 E9.9162
G1 X107.237 Y126.295 E9.93765
G1 X106.99 Y125.7 E9.95908
G1 X106.819 Y125.078 E9.98054
G1 X106.727 Y124.44 E10.00198
G1 X106.709 Y124.014 E10.01616
G1 X106.708 Y114.033 E10.34813
G1 X106.748 Y113.389 E10.36959
G1 X106.867 Y112.756 E10.39101
G1 X107.064 Y112.142 E10.41246
G1 X107.335 Y111.557 E10.4339
G1 X107.676 Y111.01 E10.45534
G1 X108.083 Y110.51 E10.47678
M204 S5000
M205 X30 Y30
G1 F1500 E4.47678
G1 F300 Z1.2
;MESH:CableClip1.stl
G0 F3600 X122.501 Y123.222 Z1.2
M204 S500
M205 X20 Y20
;TYPE:WALL-INNER
G1 F300 Z0.2
G1 F1500 E10.47678
G1 F1200 X122.501 Y123.422 E10.48343
G1 X122.301 Y123.422 E10.48774
G1 X112.5 Y123.422 E10.81372
G1 X112.499 Y114.822 E11.09976
G1 X112.499 Y114.622 E11.10641
G1 X112.699 Y114.622 E11.11072
G1 X122.5 Y114.622 E11.4367
G1 X122.501 Y123.222 E11.72274
M204 S5000
M205 X30 Y30
G0 F3600 X122.901 Y123.622
M204 S500
M205 X20 Y20
;TYPE:WALL-OUTER
G1 F1200 X122.901 Y123.822 E11.72939
G1 X122.701 Y123.822 E11.7337
G1 X112.1 Y123.822 E12.08629
G1 X112.099 Y114.422 E12.39894
G1 X112.099 Y114.222 E12.40559
G1 X112.299 Y114.222 E12.40989
G1 X122.9 Y114.222 E12.76248
G1 X122.901 Y123.622 E13.07513
M204 S5000
M205 X30 Y30
G0 F3600 X122.901 Y123.822
G0 X122.631 Y123.552
G0 X122.391 Y123.032
G0 X122.111 Y123.032
M204 S500
M205 X20 Y20
;TYPE:SKIN
G1 F1200 X112.89 Y123.032 E13.38182
G1 X112.889 Y115.012 E13.64857
G1 X122.11 Y115.012 E13.95526
G1 X122.111 Y123.032 E14.22201
M204 S5000
M205 X30 Y30
G0 F3600 X122.391 Y123.032
G0 X122.391 Y115.707
G0 X121.929 Y115.707
M204 S500
M205 X20 Y20
G1 F1200 X121.414 Y115.191 E14.24625
M204 S5000
M205 X30 Y30
G0 F3600 X120.848 Y115.191
M204 S500
M205 X20 Y20
G1 F1200 X121.929 Y116.273 E14.29712
M204 S5000
M205 X30 Y30
G0 F3600 X121.929 Y116.838
M204 S500
M205 X20 Y20
G1 F1200 X120.283 Y115.191 E14.37457
M204 S5000
M205 X30 Y30
G0 F3600 X119.717 Y115.191
M204 S500
M205 X20 Y20
G1 F1200 X121.929 Y117.404 E14.47864
M204 S5000
M205 X30 Y30
G0 F3600 X121.929 Y117.97
M204 S500
M205 X20 Y20
G1 F1200 X119.151 Y115.191 E14.60933
M204 S5000
M205 X30 Y30
G0 F3600 X118.586 Y115.191
M204 S500
M205 X20 Y20
G1 F1200 X121.929 Y118.535 E14.7666
M204 S5000
M205 X30 Y30
G0 F3600 X121.93 Y119.102
M204 S500
M205 X20 Y20
G1 F1200 X118.02 Y115.191 E14.95054
M204 S5000
M205 X30 Y30
G0 F3600 X117.454 Y115.191
M204 S500
M205 X20 Y20
G1 F1200 X121.93 Y119.667 E15.16108
M204 S5000
M205 X30 Y30
G0 F3600 X121.93 Y120.233
M204 S500
M205 X20 Y20
G1 F1200 X116.888 Y115.191 E15.39824
M204 S5000
M205 X30 Y30
G0 F3600 X116.323 Y115.191
M204 S500
M205 X20 Y20
G1 F1200 X121.93 Y120.799 E15.66199
M204 S5000
M205 X30 Y30
G0 F3600 X121.93 Y121.364
M204 S500
M205 X20 Y20
G1 F1200 X115.757 Y115.191 E15.95235
M204 S5000
M205 X30 Y30
G0 F3600 X115.191 Y115.191
M204 S500
M205 X20 Y20
G1 F1200 X121.93 Y121.93 E16.26934
M204 S5000
M205 X30 Y30
G0 F3600 X121.93 Y122.496
M204 S500
M205 X20 Y20
G1 F1200 X114.626 Y115.191 E16.61292
M204 S5000
M205 X30 Y30
G0 F3600 X114.06 Y115.191
M204 S500
M205 X20 Y20
G1 F1200 X121.719 Y122.851 E16.9732
M204 S5000
M205 X30 Y30
G0 F3600 X121.154 Y122.851
M204 S500
M205 X20 Y20
G1 F1200 X113.494 Y115.191 E17.3335
M204 S5000
M205 X30 Y30
G0 F3600 X113.068 Y115.331
M204 S500
M205 X20 Y20
G1 F1200 X120.588 Y122.851 E17.68722
M204 S5000
M205 X30 Y30
G0 F3600 X120.022 Y122.851
M204 S500
M205 X20 Y20
G1 F1200 X113.068 Y115.896 E18.01434
M204 S5000
M205 X30 Y30
G0 F3600 X113.068 Y116.462
M204 S500
M205 X20 Y20
G1 F1200 X119.457 Y122.851 E18.31485
M204 S5000
M205 X30 Y30
G0 F3600 X118.891 Y122.851
M204 S500
M205 X20 Y20
G1 F1200 X113.068 Y117.028 E18.58875
M204 S5000
M205 X30 Y30
G0 F3600 X113.068 Y117.593
M204 S500
M205 X20 Y20
G1 F1200 X118.325 Y122.851 E18.83605
M204 S5000
M205 X30 Y30
G0 F3600 X117.76 Y122.851
M204 S500
M205 X20 Y20
G1 F1200 X113.069 Y118.16 E19.0567
M204 S5000
M205 X30 Y30
G0 F3600 X113.069 Y118.726
M204 S500
M205 X20 Y20
G1 F1200 X117.194 Y122.851 E19.25072
M204 S5000
M205 X30 Y30
G0 F3600 X116.628 Y122.851
M204 S500
M205 X20 Y20
G1 F1200 X113.069 Y119.291 E19.41815
M204 S5000
M205 X30 Y30
G0 F3600 X113.069 Y119.857
M204 S500
M205 X20 Y20
G1 F1200 X116.063 Y122.851 E19.55898
M204 S5000
M205 X30 Y30
G0 F3600 X115.497 Y122.851
M204 S500
M205 X20 Y20
G1 F1200 X113.069 Y120.423 E19.67319
M204 S5000
M205 X30 Y30
G0 F3600 X113.069 Y120.989
M204 S500
M205 X20 Y20
G1 F1200 X114.931 Y122.851 E19.76077
M204 S5000
M205 X30 Y30
G0 F3600 X114.366 Y122.851
M204 S500
M205 X20 Y20
G1 F1200 X113.069 Y121.555 E19.82175
M204 S5000
M205 X30 Y30
G0 F3600 X113.069 Y122.12
M204 S500
M205 X20 Y20
G1 F1200 X113.8 Y122.851 E19.85614
M204 S5000
M205 X30 Y30
G0 F3600 X113.234 Y122.851
M204 S500
M205 X20 Y20
G1 F1200 X113.069 Y122.686 E19.8639
M204 S5000
M205 X30 Y30
G0 F3600 X112.7 Y122.687
;MESH:NONMESH
G0 X112.609 Y122.686
G0 X112.682 Y123.24
G0 X122.6 Y123.221
G0 X122.661 Y123.222
;TIME_ELAPSED:40.963656
;LAYER:1
M140 S65
M106 S255
;MESH:CableClip1.stl
G0 F5400 X122.661 Y123.222 Z0.32
M204 S500
M205 X20 Y20
;TYPE:WALL-INNER
G1 F2220 X122.661 Y123.422 E19.86789
G1 X122.461 Y123.422 E19.87047
G1 X112.34 Y123.422 E20.07245
G1 X112.339 Y114.822 E20.24407
G1 X112.339 Y114.622 E20.24806
G1 X112.539 Y114.622 E20.25065
G1 X122.66 Y114.622 E20.45262
G1 X122.661 Y123.222 E20.62425
M204 S5000
M205 X30 Y30
G0 F5400 X123.061 Y123.622
M204 S500
M205 X20 Y20
;TYPE:WALL-OUTER
G1 F1410 X123.061 Y123.822 E20.62824
G1 X122.861 Y123.822 E20.63082
G1 X111.94 Y123.822 E20.84876
G1 X111.939 Y114.422 E21.03635
G1 X111.939 Y114.222 E21.04034
G1 X112.139 Y114.222 E21.04292
G1 X123.06 Y114.222 E21.26086
G1 X123.061 Y123.622 E21.44845
M204 S5000
M205 X30 Y30
G0 F5400 X123.061 Y123.822
G0 X122.791 Y123.552
G0 X122.551 Y123.032
G0 X122.271 Y123.032
M204 S500
M205 X20 Y20
;TYPE:SKIN
G1 F1200 X112.73 Y123.032 E21.63885
G1 X112.729 Y115.012 E21.7989
G1 X122.27 Y115.012 E21.9893
G1 X122.271 Y123.032 E22.14935
M204 S5000
M205 X30 Y30
G0 F5400 X122.089 Y122.286
M204 S500
M205 X20 Y20
G1 F1200 X121.524 Y122.851 E22.16529
M204 S5000
M205 X30 Y30
G0 F5400 X120.959 Y122.851
M204 S500
M205 X20 Y20
G1 F1200 X122.089 Y121.72 E22.1972
M204 S5000
M205 X30 Y30
G0 F5400 X122.089 Y121.154
M204 S500
M205 X20 Y20
G1 F1200 X120.393 Y122.851 E22.24508
M204 S5000
M205 X30 Y30
G0 F5400 X119.827 Y122.851
M204 S500
M205 X20 Y20
G1 F1200 X122.089 Y120.589 E22.30892
M204 S5000
M205 X30 Y30
G0 F5400 X122.089 Y120.023
M204 S500
M205 X20 Y20
G1 F1200 X119.262 Y122.851 E22.38871
M204 S5000
M205 X30 Y30
G0 F5400 X118.696 Y122.851
M204 S500
M205 X20 Y20
G1 F1200 X122.089 Y119.457 E22.48449
M204 S5000
M205 X30 Y30
G0 F5400 X122.089 Y118.892
M204 S500
M205 X20 Y20
G1 F1200 X118.13 Y122.851 E22.59622
M204 S5000
M205 X30 Y30
G0 F5400 X117.564 Y122.851
M204 S500
M205 X20 Y20
G1 F1200 X122.089 Y118.327 E22.72391
M204 S5000
M205 X30 Y30
G0 F5400 X122.089 Y117.761
M204 S500
M205 X20 Y20
G1 F1200 X116.999 Y122.851 E22.86756
M204 S5000
M205 X30 Y30
G0 F5400 X116.433 Y122.851
M204 S500
M205 X20 Y20
G1 F1200 X122.089 Y117.195 E23.02718
M204 S5000
M205 X30 Y30
G0 F5400 X122.089 Y116.63
M204 S500
M205 X20 Y20
G1 F1200 X115.867 Y122.851 E23.20277
M204 S5000
M205 X30 Y30
G0 F5400 X115.302 Y122.851
M204 S500
M205 X20 Y20
G1 F1200 X122.089 Y116.064 E23.39431
M204 S5000
M205 X30 Y30
G0 F5400 X122.089 Y115.498
M204 S500
M205 X20 Y20
G1 F1200 X114.736 Y122.851 E23.60183
M204 S5000
M205 X30 Y30
G0 F5400 X114.17 Y122.851
M204 S500
M205 X20 Y20
G1 F1200 X121.83 Y115.191 E23.81801
M204 S5000
M205 X30 Y30
G0 F5400 X121.265 Y115.191
M204 S500
M205 X20 Y20
G1 F1200 X113.605 Y122.851 E24.03419
M204 S5000
M205 X30 Y30
G0 F5400 X113.039 Y122.851
M204 S500
M205 X20 Y20
G1 F1200 X120.699 Y115.191 E24.25038
M204 S5000
M205 X30 Y30
G0 F5400 X120.133 Y115.191
M204 S500
M205 X20 Y20
G1 F1200 X112.909 Y122.415 E24.45425
M204 S5000
M205 X30 Y30
G0 F5400 X112.909 Y121.85
